X: 952
T: The sunshine hornpipe
C: anon.
O: Ireland
B: Francis O'Neill: "The Dance Music of Ireland" (1907) no. 952
R: Hornpipe
Z: Transcribed by Frank Nordberg - http://www.musicaviva.com
F: http://www.musicaviva.com/abc/tunes/ireland/oneill-1001/oneill-1001-095
2.abc
M: C
L: 1/8
K: A
(cd)|(3(eae) (3(cec) (3(Aca) ED|(CE)Ac e(cAc)|(3(dfd) (3(cec) (3(BdB) (3(
AcA)|GBFB E2(cd)|(e>a)c>e (A>c)E>D|
C(EAc) e(cAc)|(3(dfd) (3(cec) (3(BdB) (3(GBG)|A(aec) A2::(Bc)|dBGB E(GBc)
|d(BGB) d2(cd)|
ec (3(AcA) (EA)cd|ec (3Ace a2ga|f(dBd) (3(fed) (3(cBA)|(3(GAB) (3(AGF) E2
(cd)|eaf(d cA)BG|A(aec) A2:|
W:
W:
W: From Musica Viva - http://www.musicaviva.com
W: the Internet center for free sheet music downloads.


